X:144
T:Miss Hayes Reel. VWMLa.144
%%VWML:Anon2-3049-p85-0
F:http://www.vwml.org/record/Anon2/3049/p85
S:Anon. MS, late 18thC, Vaughan Williams Mem. Library
O:England;Yorkshire
Z:vmp/efdss.Simon Wilson. Reviewed PJH 2008.
M:C
L:1/8
Q:2/4=90
K:Bb
d|B2FD C2cd|B2FD FDdc|BGFD CEDC|B,EDE FBB:|\
|:g|fBdB fBeg|fBdB gccb|
eBdB dfbg|fdcB FBBg|\
eBdf Bfdf|efdf ecce|dBFD Bdfd|gecb dBB:|
